assets/img/rabbit-variant-outline.svg

<svg width="178" height="178" viewBox="0 0 178 178" fill="none" xmlns="http://www.w3.org/2000/svg">
<path d="M126.083 103.833C124.303 102.053 122.82 100.125 121.263 98.2709C129.792 85.2917 140.917 63.4867 140.917 37.0834C140.917 22.6209 135.428 14.8334 126.083 14.8334C114.662 14.8334 96.7133 30.1117 89 59.1109C81.2867 30.1117 63.3383 14.8334 51.9167 14.8334C42.5717 14.8334 37.0833 22.6209 37.0833 37.0834C37.0833 63.4867 48.2083 85.2917 56.7375 98.2709C55.18 100.125 53.6967 102.053 51.9167 103.833C50.0625 105.688 37.0833 114.143 37.0833 129.792C37.0833 148.333 51.9167 163.167 70.4583 163.167C81.5833 163.167 89 159.458 89 159.458C89 159.458 96.4167 163.167 107.542 163.167C126.083 163.167 140.917 148.333 140.917 129.792C140.917 114.143 127.938 105.688 126.083 103.833ZM125.193 29.8892C125.638 31.15 126.083 33.375 126.083 37.0834C126.083 58.1467 117.851 75.9467 110.731 87.3684C107.913 85.2917 104.575 83.8084 100.348 82.77C102.128 49.2467 118.444 32.1142 125.193 29.8892ZM51.9167 37.0834C51.9167 33.375 52.3617 31.15 52.8067 29.8892C59.5558 32.1142 75.8725 49.2467 77.875 82.77C73.425 83.8084 70.0875 85.2917 67.3433 87.3684C60.1492 75.9467 51.9167 58.1467 51.9167 37.0834ZM107.542 148.333C100.125 148.333 94.1917 145.886 91.0767 144.18C94.1917 142.845 96.4167 138.914 96.4167 137.208C96.4167 135.132 93.0792 133.5 89 133.5C84.9208 133.5 81.5833 135.132 81.5833 137.208C81.5833 138.914 83.8083 142.845 86.9233 144.18C83.8083 145.886 77.875 148.333 70.4583 148.333C60.2233 148.333 51.9167 140.027 51.9167 129.792C51.9167 124.6 55.1058 120.595 59.3333 116.961C62.5967 114.291 63.8575 113.104 68.975 106.8C74.6117 99.7542 77.0592 96.4167 89 96.4167C100.941 96.4167 103.388 99.7542 109.025 106.8C114.143 113.104 115.403 114.291 118.667 116.961C122.894 120.595 126.083 124.6 126.083 129.792C126.083 140.027 117.777 148.333 107.542 148.333ZM103.833 118.667C103.833 121.708 102.202 124.229 100.125 124.229C98.0483 124.229 96.4167 121.708 96.4167 118.667C96.4167 115.626 98.0483 113.104 100.125 113.104C102.202 113.104 103.833 115.626 103.833 118.667ZM81.5833 118.667C81.5833 121.708 79.9517 124.229 77.875 124.229C75.7983 124.229 74.1667 121.708 74.1667 118.667C74.1667 115.626 75.7983 113.104 77.875 113.104C79.9517 113.104 81.5833 115.626 81.5833 118.667Z" fill="black"/>
</svg>

<svg xmlns="http://www.w3.org/2000/svg" width="178" height="178" fill="none"><path fill="#000" d="M126.083 103.833c-1.78-1.78-3.263-3.708-4.82-5.562 8.529-12.98 19.654-34.784 19.654-61.188 0-14.462-5.489-22.25-14.834-22.25-11.421 0-29.37 15.279-37.083 44.278-7.713-29-25.662-44.278-37.083-44.278-9.345 0-14.834 7.788-14.834 22.25 0 26.404 11.125 48.209 19.654 61.188-1.557 1.854-3.04 3.782-4.82 5.562-1.855 1.855-14.834 10.31-14.834 25.959 0 18.541 14.834 33.375 33.375 33.375 11.125 0 18.542-3.709 18.542-3.709s7.417 3.709 18.542 3.709c18.541 0 33.375-14.834 33.375-33.375 0-15.649-12.979-24.104-14.834-25.959Zm-.89-73.944c.445 1.261.89 3.486.89 7.194 0 21.064-8.232 38.864-15.352 50.285-2.818-2.076-6.156-3.56-10.383-4.598 1.78-33.523 18.096-50.656 24.845-52.88Zm-73.276 7.194c0-3.708.445-5.933.89-7.194 6.749 2.225 23.066 19.358 25.068 52.881-4.45 1.038-7.787 2.522-10.532 4.598-7.194-11.421-15.426-29.221-15.426-50.285Zm55.625 111.25c-7.417 0-13.35-2.447-16.465-4.153 3.115-1.335 5.34-5.266 5.34-6.972 0-2.076-3.338-3.708-7.417-3.708-4.08 0-7.417 1.632-7.417 3.708 0 1.706 2.225 5.637 5.34 6.972-3.115 1.706-9.048 4.153-16.465 4.153-10.235 0-18.541-8.306-18.541-18.541 0-5.192 3.189-9.197 7.416-12.831 3.264-2.67 4.525-3.857 9.642-10.161C74.612 99.754 77.059 96.417 89 96.417c11.941 0 14.388 3.337 20.025 10.383 5.118 6.304 6.378 7.491 9.642 10.161 4.227 3.634 7.416 7.639 7.416 12.831 0 10.235-8.306 18.541-18.541 18.541Zm-3.709-29.666c0 3.041-1.631 5.562-3.708 5.562s-3.708-2.521-3.708-5.562c0-3.041 1.631-5.563 3.708-5.563s3.708 2.522 3.708 5.563Zm-22.25 0c0 3.041-1.631 5.562-3.708 5.562s-3.708-2.521-3.708-5.562c0-3.041 1.631-5.563 3.708-5.563s3.708 2.522 3.708 5.563Z"/></svg>
